X:1
T:The Banshee
D:The bothy Band: first album (1975)
R:Reel
S:Laurent Garnier
Z:Gwenael Lambrouin 24/Jan/2004
M:2/2
L:1/8
Q:1/4=120
K:G
|: GGGD EDBD | GGGB d2Bd | eeed BAGA | BAGE EDD2 |
 | GGGD EDBD | GGGB d2Bd | eeed BAGA | BAGE EDD2 :|
|: eaag efge | dBBA B4   | eBBB gBfB | eBBA B4 |
 | eaag efge | dBBA B2Bd | eeed BAGA | BAGE EDD2 :|
